Sources/FrostedUI/Resources/Icons.xcassets/atom24.imageset/atom-24.svg

<svg width="24" height="24" viewBox="0 0 24 24" fill="none" xmlns="http://www.w3.org/2000/svg" data-fui-icon="true">
  <path
    d="M12.2039 0.506836C13.2089 0.576146 14.0039 1.15136 14.5701 1.79785C15.1765 2.4904 15.655 3.40622 16.0261 4.4082C16.0725 4.5335 16.117 4.66164 16.1609 4.79199C16.2961 4.76479 16.4302 4.74029 16.5623 4.71777C17.6155 4.53821 18.6476 4.49493 19.5505 4.67383C20.3935 4.84088 21.2888 5.24142 21.8513 6.07715L21.9587 6.25C22.5096 7.20422 22.4161 8.25724 22.1208 9.125C21.8243 9.99636 21.2698 10.8681 20.5876 11.6904C20.5023 11.7934 20.414 11.8967 20.323 12C20.414 12.1034 20.5022 12.2066 20.5876 12.3096C21.2699 13.132 21.8233 14.0045 22.1199 14.876C22.4151 15.7436 22.5104 16.796 21.9597 17.75C21.4088 18.7041 20.4496 19.149 19.5505 19.3271C18.6476 19.506 17.6155 19.4618 16.5623 19.2822C16.4302 19.2597 16.2961 19.2352 16.1609 19.208C16.117 19.3384 16.0725 19.4665 16.0261 19.5918C15.655 20.5938 15.1765 21.5096 14.5701 22.2021C13.9663 22.8916 13.1022 23.4998 12.0007 23.5C10.8989 23.5 10.0343 22.8917 9.43042 22.2021C8.82399 21.5096 8.34549 20.5938 7.97437 19.5918C7.9279 19.4663 7.88164 19.3385 7.83765 19.208C7.70299 19.2351 7.56975 19.2598 7.43823 19.2822C6.38502 19.4618 5.35285 19.506 4.44995 19.3271C3.55089 19.149 2.59173 18.704 2.04077 17.75C1.49017 16.796 1.58452 15.7436 1.87964 14.876C2.17619 14.0045 2.73061 13.132 3.41284 12.3096C3.49812 12.2068 3.58562 12.1032 3.67651 12C3.58562 11.8968 3.49812 11.7932 3.41284 11.6904C2.7307 10.8681 2.17622 9.99637 1.87964 9.125C1.58439 8.25733 1.49007 7.20414 2.04077 6.25L2.14819 6.07715C2.71074 5.24126 3.60694 4.84088 4.44995 4.67383C5.35288 4.49496 6.38498 4.53818 7.43823 4.71777C7.56975 4.7402 7.70299 4.76491 7.83765 4.79199C7.88164 4.66146 7.9279 4.53366 7.97437 4.4082C8.34549 3.40619 8.82399 2.4904 9.43042 1.79785C10.0343 1.10829 10.8989 0.5 12.0007 0.5L12.2039 0.506836ZM11.9998 17.833C11.0743 18.2441 10.1658 18.5808 9.29858 18.8389C9.93369 20.6676 10.8201 21.8516 11.8093 21.9873L12.0007 22C13.0662 21.9995 14.0244 20.7837 14.7 18.8389C13.8331 18.5808 12.9249 18.2439 11.9998 17.833ZM4.72632 13.0801C3.37965 14.6377 2.80709 16.0771 3.3396 17L3.44604 17.1592C4.05799 17.9479 5.52598 18.1227 7.42651 17.7588C7.21644 16.8787 7.05473 15.9231 6.948 14.916C6.12937 14.3201 5.38334 13.702 4.72632 13.0801ZM19.2732 13.0801C18.6161 13.702 17.8702 14.3201 17.0515 14.916C16.9448 15.9231 16.7831 16.8787 16.573 17.7588C18.4737 18.1229 19.9413 17.9477 20.5535 17.1592L20.6609 17C21.1934 16.077 20.6201 14.6378 19.2732 13.0801ZM8.61108 16.0342C8.68884 16.5098 8.77943 16.9661 8.88257 17.3994C9.30929 17.2721 9.74925 17.1216 10.2 16.9512C9.9329 16.8081 9.66498 16.6609 9.39819 16.5068C9.131 16.3526 8.86887 16.1942 8.61108 16.0342ZM15.3884 16.0332C15.1307 16.1932 14.8694 16.3526 14.6023 16.5068C14.3353 16.661 14.0668 16.808 13.7996 16.9512C14.2499 17.1215 14.6895 17.2722 15.116 17.3994C15.2192 16.9657 15.3106 16.5093 15.3884 16.0332ZM11.9998 7.81738C11.3892 8.10856 10.7693 8.4344 10.1482 8.79297C9.527 9.15162 8.93524 9.52589 8.37769 9.90918C8.32455 10.5835 8.29663 11.2829 8.29663 12C8.29663 12.7171 8.32456 13.4165 8.37769 14.0908C8.93531 14.4742 9.5269 14.8493 10.1482 15.208C10.7689 15.5664 11.3895 15.8896 11.9998 16.1807C12.6103 15.8895 13.2313 15.5665 13.8523 15.208C14.4734 14.8494 15.0644 14.4741 15.6218 14.0908C15.6749 13.4165 15.7039 12.7171 15.7039 12C15.7039 11.2826 15.675 10.5828 15.6218 9.9082C15.0646 9.52518 14.4731 9.15139 13.8523 8.79297C13.231 8.43428 12.6105 8.10863 11.9998 7.81738ZM11.9998 10.5186C12.818 10.5186 13.4812 11.1818 13.4812 12C13.4812 12.8182 12.8179 13.4814 11.9998 13.4814C11.1817 13.4813 10.5183 12.8181 10.5183 12C10.5183 11.1819 11.1817 10.5187 11.9998 10.5186ZM6.81128 11.082C6.43853 11.387 6.08982 11.6943 5.76636 12C6.08966 12.3056 6.43872 12.6122 6.81128 12.917C6.80162 12.6141 6.79663 12.3082 6.79663 12C6.79663 11.6915 6.8016 11.3853 6.81128 11.082ZM17.1873 11.082C17.1969 11.3853 17.2039 11.6914 17.2039 12C17.2039 12.3082 17.1969 12.614 17.1873 12.917C17.56 12.612 17.9097 12.3058 18.2332 12C17.9095 11.6941 17.5602 11.3871 17.1873 11.082ZM7.42651 6.24023C5.40497 5.85317 3.87251 6.07758 3.3396 7C2.80725 7.92283 3.38014 9.3615 4.72632 10.9189C5.38334 10.2971 6.12939 9.67887 6.948 9.08301C7.05477 8.0759 7.2164 7.12033 7.42651 6.24023ZM20.6599 7C20.1269 6.07747 18.5949 5.85298 16.573 6.24023C16.7831 7.12035 16.9447 8.07588 17.0515 9.08301C17.8701 9.67886 18.6161 10.2971 19.2732 10.9189C20.6197 9.36119 21.1926 7.92289 20.6599 7ZM8.88354 6.60059C8.78036 7.03395 8.68888 7.49008 8.61108 7.96582C8.86885 7.80583 9.13102 7.64742 9.39819 7.49316C9.66511 7.33906 9.93277 7.19096 10.2 7.04785C9.74968 6.87759 9.30988 6.72779 8.88354 6.60059ZM15.116 6.60059C14.6894 6.72789 14.2491 6.87744 13.7986 7.04785C14.0662 7.19119 14.3349 7.33879 14.6023 7.49316C14.8693 7.6473 15.1309 7.80595 15.3884 7.96582C15.3107 7.49006 15.2191 7.03397 15.116 6.60059ZM12.0007 2C10.9352 2 9.97537 3.21532 9.29956 5.16016C10.1665 5.41821 11.0745 5.75603 11.9998 6.16699C12.925 5.75602 13.833 5.41824 14.7 5.16016C14.0244 3.21585 13.066 2.0005 12.0007 2Z"
    fill="currentColor"
  />
</svg>

<svg xmlns="http://www.w3.org/2000/svg" width="24" height="24" fill="none" data-fui-icon="true" viewBox="0 0 24 24"><path fill="currentColor" d="M12.204.507c1.005.07 1.8.644 2.366 1.29.607.693 1.085 1.61 1.456 2.611q.07.188.135.384.204-.04.401-.074c1.053-.18 2.086-.223 2.988-.044.843.167 1.739.567 2.301 1.403l.108.173c.55.954.457 2.007.162 2.875-.297.871-.851 1.743-1.533 2.565a13 13 0 0 1-.265.31q.137.155.265.31c.682.822 1.235 1.694 1.532 2.566.295.868.39 1.92-.16 2.874-.551.954-1.51 1.399-2.41 1.577-.902.179-1.934.135-2.988-.045a14 14 0 0 1-.401-.074q-.065.196-.135.384c-.371 1.002-.85 1.918-1.456 2.61-.604.69-1.468 1.298-2.57 1.298s-1.966-.608-2.57-1.298c-.606-.692-1.085-1.608-1.456-2.61a14 14 0 0 1-.136-.384q-.202.04-.4.074c-1.053.18-2.085.224-2.988.045-.9-.178-1.858-.623-2.41-1.577-.55-.954-.455-2.006-.16-2.874.296-.871.85-1.744 1.533-2.566q.127-.155.264-.31-.137-.155-.264-.31c-.682-.822-1.237-1.694-1.533-2.565-.296-.868-.39-1.92.16-2.875l.108-.173c.563-.836 1.459-1.236 2.302-1.403.903-.179 1.935-.136 2.988.044q.198.033.4.074.066-.195.136-.384c.371-1.002.85-1.918 1.456-2.61C10.034 1.108 10.9.5 12 .5zM12 17.833c-.926.411-1.834.748-2.701 1.006.635 1.829 1.521 3.013 2.51 3.148l.192.013c1.065 0 2.023-1.216 2.699-3.161a23 23 0 0 1-2.7-1.006M4.726 13.08C3.38 14.638 2.807 16.077 3.34 17l.106.16c.612.788 2.08.963 3.98.599a23 23 0 0 1-.478-2.843 23 23 0 0 1-2.222-1.836m14.547 0a23 23 0 0 1-2.221 1.836 23 23 0 0 1-.479 2.843c1.9.364 3.368.189 3.98-.6l.108-.159c.532-.923-.04-2.362-1.388-3.92M8.611 16.034q.116.715.272 1.365.64-.191 1.317-.448a29 29 0 0 1-1.589-.917m6.777 0q-.386.241-.786.473-.401.23-.802.444.676.256 1.316.448.155-.65.272-1.366M12 7.816A27 27 0 0 0 8.378 9.91a26.7 26.7 0 0 0 0 4.182A26.6 26.6 0 0 0 12 16.18a26.598 26.598 0 0 0 3.622-2.09 26.7 26.7 0 0 0 0-4.183A26.7 26.7 0 0 0 12 7.818m0 2.702a1.481 1.481 0 1 1 0 2.962 1.481 1.481 0 0 1 0-2.962m-5.189.563q-.559.458-1.045.918.486.46 1.045.917a29 29 0 0 1 0-1.835m10.376 0q.016.455.017.918-.001.462-.017.917A20 20 0 0 0 18.233 12a20 20 0 0 0-1.046-.918M7.427 6.24C5.405 5.853 3.873 6.078 3.34 7c-.533.923.04 2.361 1.386 3.919a23 23 0 0 1 2.222-1.836c.107-1.007.268-1.963.479-2.843M20.66 7c-.533-.923-2.065-1.147-4.087-.76.21.88.372 1.836.479 2.843a23 23 0 0 1 2.221 1.836C20.62 9.36 21.193 7.923 20.66 7M8.884 6.6q-.156.651-.273 1.366a29 29 0 0 1 1.589-.918q-.676-.256-1.316-.447m6.232 0q-.641.192-1.317.448.401.213.803.445.4.232.786.473-.116-.715-.272-1.365M12.001 2C10.935 2 9.975 3.215 9.3 5.16c.866.258 1.774.596 2.7 1.007a23 23 0 0 1 2.7-1.007C14.024 3.216 13.066 2 12 2"/></svg>
